src/assets/icons/payview/wallet-paypal.svg

<svg width="48" height="48" viewBox="0 0 48 48" fill="none" xmlns="http://www.w3.org/2000/svg">
<rect x="18.3789" y="5" width="28" height="24" rx="6" fill="#253238"/>
<rect x="20.3086" y="7.00098" width="24.1379" height="20" rx="4" fill="#F5F7F8"/>
<path d="M25.7 15.2925C25.6235 15.7872 25.2394 15.7872 24.8681 15.7872H24.6569L24.8051 14.863C24.8139 14.8072 24.8633 14.7656 24.9207 14.7656H25.0179C25.2705 14.7656 25.5096 14.7656 25.6323 14.9077C25.7056 14.9925 25.7287 15.1182 25.7 15.2925ZM25.539 14H24.139C24.0433 14 23.9621 14.0683 23.9469 14.1618L23.3803 17.6999C23.3692 17.7698 23.4242 17.8327 23.4959 17.8327H24.1645C24.2601 17.8327 24.3414 17.7643 24.3565 17.6709L24.5095 16.7169C24.5238 16.6234 24.6059 16.5551 24.7015 16.5551H25.1446C26.0666 16.5551 26.5989 16.1154 26.7383 15.2438C26.8013 14.8622 26.7407 14.563 26.5598 14.3533C26.3606 14.1217 26.0076 14 25.539 14Z" fill="#253238"/>
<path d="M28.7856 16.5623C28.7211 16.94 28.4167 17.1928 28.0294 17.1928C27.835 17.1928 27.6788 17.1316 27.5792 17.0146C27.4804 16.8991 27.4421 16.7342 27.474 16.5505C27.5345 16.176 27.8437 15.9145 28.2254 15.9145C28.4159 15.9145 28.5705 15.9765 28.6725 16.0943C28.7745 16.2136 28.8151 16.3793 28.7856 16.5623ZM29.7203 15.2769H29.0502C28.9928 15.2769 28.9434 15.3177 28.9346 15.3742L28.9051 15.5588L28.8581 15.492C28.7131 15.2847 28.3896 15.2148 28.0661 15.2148C27.325 15.2148 26.6923 15.7676 26.5688 16.5434C26.505 16.9305 26.5958 17.3004 26.8182 17.5587C27.0222 17.7959 27.3146 17.8948 27.6628 17.8948C28.2597 17.8948 28.5912 17.5163 28.5912 17.5163L28.5609 17.7001C28.5497 17.7699 28.6047 17.8335 28.6756 17.8335H29.2797C29.3753 17.8335 29.4566 17.7652 29.4717 17.6718L29.8343 15.4104C29.8462 15.3397 29.792 15.2769 29.7203 15.2769Z" fill="#253238"/>
<path d="M33.2915 15.2764H32.6174C32.5528 15.2764 32.4931 15.3078 32.4564 15.3604L31.5273 16.7094L31.1336 15.413C31.1089 15.3321 31.0332 15.2764 30.9472 15.2764H30.285C30.2045 15.2764 30.1487 15.3541 30.1742 15.4287L30.9161 17.5747L30.218 18.5452C30.1631 18.6214 30.2188 18.7266 30.3129 18.7266H30.9854C31.0492 18.7266 31.1089 18.696 31.1456 18.6442L33.3864 15.457C33.4413 15.38 33.3864 15.2764 33.2915 15.2764Z" fill="#253238"/>
<path d="M35.6891 15.2925C35.6126 15.7872 35.2285 15.7872 34.8572 15.7872H34.646L34.7942 14.863C34.803 14.8072 34.8516 14.7656 34.909 14.7656H35.0062C35.2588 14.7656 35.4978 14.7656 35.6206 14.9077C35.6947 14.9925 35.717 15.1182 35.6891 15.2925ZM35.5273 14H34.1272C34.0316 14 33.9503 14.0683 33.9352 14.1618L33.3686 17.7C33.3575 17.7698 33.4125 17.8327 33.4834 17.8327H34.2022C34.2691 17.8327 34.3257 17.7848 34.3368 17.7196L34.4978 16.7169C34.5121 16.6234 34.5942 16.5551 34.6898 16.5551H35.1329C36.0557 16.5551 36.5872 16.1154 36.7266 15.2438C36.7896 14.8622 36.729 14.563 36.5481 14.3533C36.3489 14.1217 35.9967 14 35.5273 14Z" fill="#90A4AE"/>
<path d="M38.7751 16.5623C38.7105 16.94 38.4061 17.1928 38.0188 17.1928C37.8244 17.1928 37.6682 17.1316 37.5686 17.0146C37.4698 16.8991 37.4323 16.7342 37.4634 16.5505C37.524 16.176 37.8332 15.9145 38.2149 15.9145C38.4053 15.9145 38.5599 15.9765 38.6619 16.0943C38.7639 16.2136 38.8045 16.3793 38.7751 16.5623ZM39.709 15.2769H39.0388C38.9815 15.2769 38.932 15.3177 38.9241 15.3742L38.8946 15.5588L38.8476 15.492C38.7025 15.2847 38.379 15.2148 38.0555 15.2148C37.3144 15.2148 36.6817 15.7676 36.559 16.5434C36.4952 16.9305 36.5861 17.3004 36.8084 17.5587C37.0132 17.7959 37.3049 17.8948 37.6531 17.8948C38.2499 17.8948 38.5814 17.5163 38.5814 17.5163L38.5511 17.7001C38.54 17.7699 38.595 17.8335 38.6667 17.8335H39.2707C39.3663 17.8335 39.4476 17.7652 39.4628 17.6718L39.8253 15.4104C39.8357 15.3397 39.7815 15.2769 39.709 15.2769Z" fill="#90A4AE"/>
<path d="M40.5018 14.0985L39.9272 17.7011C39.9161 17.771 39.9711 17.8339 40.042 17.8339H40.6197C40.7153 17.8339 40.7974 17.7655 40.8117 17.6721L41.3783 14.1347C41.3894 14.0648 41.3345 14.002 41.2635 14.002H40.6165C40.5599 14.0012 40.5105 14.0428 40.5018 14.0985Z" fill="#90A4AE"/>
<path d="M23.0743 17.0946L25.0811 22.2027C26.9966 22.75 28.3649 24.4831 28.3649 26.5811V31.1419V36.6149V38.4392C28.3649 40.9932 26.3581 43 23.8041 43H5.56081C3.00676 43 1 40.9932 1 38.4392V26.5811C1 24.5743 2.18581 22.9324 3.91892 22.2939L4.19257 22.0203L12.8581 16.1824C13.0405 16 13.3142 16 13.5878 16C13.7703 16.0912 14.0439 16.2736 14.1351 16.3649L15.777 19.1014C15.8682 19.1926 15.8682 19.2838 15.8682 19.375L21.7973 16.5473C22.0709 16.4561 22.2534 16.4561 22.527 16.5473C22.8007 16.6385 22.9831 16.8209 23.0743 17.0946Z" fill="#F5F7F8"/>
<path d="M25.0811 22.2027L23.0743 17.0946C22.9831 16.8209 22.8007 16.6385 22.527 16.5473C22.2534 16.4561 22.0709 16.4561 21.7973 16.5473L15.8682 19.375C15.8682 19.2838 15.8682 19.1926 15.777 19.1014L14.1351 16.3649C14.0439 16.2736 13.7703 16.0912 13.5878 16C13.3142 16 13.0405 16 12.8581 16.1824L4.19257 22.0203C4.10135 22.1115 4.01014 22.2027 3.91892 22.2939C2.18581 22.9324 1 24.5743 1 26.5811V38.4392C1 40.9932 3.00676 43 5.56081 43H23.8041C26.3581 43 28.3649 40.9932 28.3649 38.4392V36.6149V31.1419V26.5811C28.3649 24.4831 26.9966 22.75 25.0811 22.2027ZM22.9831 22.0203H14.7736L21.7061 18.7365L22.9831 22.0203ZM13.0405 18.1892L14.1351 20.1047L14.2264 20.1959L10.5777 21.9291H7.56757L13.0405 18.1892ZM23.8041 41.1757H5.56081C4.01013 41.1757 2.82432 39.8986 2.82432 38.4392V26.5811C2.82432 25.0304 4.10135 23.8446 5.56081 23.8446H23.8041C25.3547 23.8446 26.5405 25.1216 26.5405 26.5811V30.2297H21.0676C19.0608 30.2297 17.4189 31.8716 17.4189 33.8784C17.4189 35.8851 19.0608 37.527 21.0676 37.527H26.5405V38.4392C26.5405 39.8986 25.2635 41.1757 23.8041 41.1757ZM26.5405 35.7027H21.0676C20.0642 35.7027 19.2432 34.8818 19.2432 33.8784C19.2432 32.875 20.0642 32.0541 21.0676 32.0541H26.5405V35.7027Z" fill="#253238"/>
</svg>

<svg width="48" height="48" fill="none" xmlns="http://www.w3.org/2000/svg"><rect x="18.379" y="5" width="28" height="24" rx="6" fill="#253238"/><rect x="20.309" y="7.001" width="24.138" height="20" rx="4" fill="#F5F7F8"/><path d="M25.7 15.293c-.076.494-.46.494-.832.494h-.211l.148-.924a.117.117 0 0 1 .116-.097h.097c.252 0 .492 0 .614.142.074.085.097.21.068.385ZM25.539 14h-1.4a.194.194 0 0 0-.192.162L23.38 17.7a.116.116 0 0 0 .116.133h.669a.194.194 0 0 0 .192-.162l.152-.954a.193.193 0 0 1 .192-.162h.444c.922 0 1.454-.44 1.593-1.311.063-.382.003-.681-.178-.89-.2-.232-.552-.354-1.021-.354ZM28.786 16.562a.744.744 0 0 1-.757.63c-.194 0-.35-.06-.45-.177a.555.555 0 0 1-.105-.465.747.747 0 0 1 .751-.636c.19 0 .345.063.447.18.102.12.143.285.114.468Zm.934-1.285h-.67a.116.116 0 0 0-.115.097l-.03.185-.047-.067c-.145-.207-.468-.277-.792-.277-.741 0-1.374.553-1.497 1.328-.064.387.027.757.25 1.016.203.237.496.336.844.336.597 0 .928-.379.928-.379l-.03.184a.116.116 0 0 0 .115.134h.604a.193.193 0 0 0 .192-.162l.362-2.262a.114.114 0 0 0-.114-.133ZM33.291 15.276h-.674a.196.196 0 0 0-.16.084l-.93 1.35-.393-1.297a.194.194 0 0 0-.187-.137h-.662a.116.116 0 0 0-.11.153l.741 2.146-.698.97a.115.115 0 0 0 .095.182h.672c.064 0 .124-.031.16-.083l2.241-3.187a.114.114 0 0 0-.095-.18Z" fill="#253238"/><path d="M35.69 15.293c-.077.494-.462.494-.833.494h-.211l.148-.924a.116.116 0 0 1 .115-.097h.097c.253 0 .492 0 .615.142.074.085.096.21.068.385ZM35.526 14h-1.4a.193.193 0 0 0-.192.162L33.37 17.7a.115.115 0 0 0 .114.133h.72a.136.136 0 0 0 .134-.113l.16-1.003a.193.193 0 0 1 .193-.162h.443c.923 0 1.454-.44 1.594-1.311.063-.382.002-.681-.179-.89-.2-.232-.551-.354-1.02-.354ZM38.775 16.562a.744.744 0 0 1-.756.63c-.195 0-.35-.06-.45-.177a.557.557 0 0 1-.106-.465.747.747 0 0 1 .752-.636c.19 0 .345.063.447.18.102.12.142.285.113.468Zm.934-1.285h-.67a.115.115 0 0 0-.115.097l-.03.185-.046-.067c-.145-.207-.469-.277-.792-.277-.742 0-1.374.553-1.497 1.328-.064.387.027.757.25 1.016.204.237.496.336.844.336.597 0 .928-.379.928-.379l-.03.184a.116.116 0 0 0 .116.134h.604a.194.194 0 0 0 .192-.162l.362-2.262a.116.116 0 0 0-.116-.133ZM40.502 14.098l-.575 3.603a.116.116 0 0 0 .115.133h.578a.193.193 0 0 0 .192-.162l.566-3.537a.115.115 0 0 0-.114-.133h-.648a.115.115 0 0 0-.114.096Z" fill="#90A4AE"/><path d="m23.074 17.095 2.007 5.108a4.515 4.515 0 0 1 3.284 4.378V38.44A4.517 4.517 0 0 1 23.805 43H5.56C3.007 43 1 40.993 1 38.44V26.58c0-2.007 1.186-3.649 2.919-4.287l.274-.274 8.665-5.838c.182-.182.456-.182.73-.182.182.091.456.274.547.365l1.642 2.736c.091.092.091.183.091.274l5.93-2.828c.273-.09.455-.09.729 0a.822.822 0 0 1 .547.548Z" fill="#F5F7F8"/><path d="m25.081 22.203-2.007-5.108a.822.822 0 0 0-.547-.548 1.007 1.007 0 0 0-.73 0l-5.929 2.828c0-.091 0-.182-.091-.274l-1.642-2.736a2.831 2.831 0 0 0-.547-.365c-.274 0-.547 0-.73.182L4.193 22.02l-.274.274C2.186 22.932 1 24.574 1 26.58V38.44C1 40.993 3.007 43 5.56 43h18.244a4.517 4.517 0 0 0 4.56-4.56V26.581a4.515 4.515 0 0 0-3.283-4.38Zm-2.098-.183h-8.21l6.933-3.284 1.277 3.284Zm-9.943-3.83 1.095 1.915.091.09-3.648 1.734h-3.01l5.473-3.74Zm10.764 22.986H5.561c-1.55 0-2.737-1.277-2.737-2.737V26.581c0-1.55 1.277-2.736 2.737-2.736h18.243c1.55 0 2.737 1.277 2.737 2.736v3.649h-5.473a3.66 3.66 0 0 0-3.65 3.648 3.66 3.66 0 0 0 3.65 3.649h5.473v.912c0 1.46-1.277 2.737-2.737 2.737Zm2.737-5.473h-5.473a1.83 1.83 0 0 1-1.825-1.825 1.83 1.83 0 0 1 1.825-1.824h5.473v3.649Z" fill="#253238"/></svg>
